TV/Source/QVC.svg

<svg height="7.847931mm" viewBox="0 0 25.539999 27.807629" width="7.207955mm" xmlns="http://www.w3.org/2000/svg"><g transform="translate(-438.6587 -383.29188)"><path d="m461.1587 404.48976-7.5475-1.22875.001.001 3.30375 4.37125 2.62 3.46625 4.27-3.25375-2.6475-3.35625z" fill="#f6988d"/><path d="m0 0c .716.173 1.415.42 2.072.732l-2.362 3.125-.281.371z" fill="#b95858" transform="matrix(1.25 0 0 -1.25 454.29345 408.54501)"/><g fill="#c95759"><path d="m0 0-.179.138-.125.097-.105-.121c-.181-.212-.399-.315-.666-.315-.245 0-.44.074-.599.227-.158.156-.235.343-.235.572 0 .149.036.286.107.409.069.118.164.213.294.287.13.071.266.108.418.108.139 0 .267-.029.382-.084s.212-.135.293-.242l.104-.134.132.104.179.136.128.099-.094.132c-.121.169-.283.307-.478.404-.197.096-.408.142-.649.142-.393 0-.725-.128-.989-.385-.266-.26-.399-.581-.399-.957 0-.357.111-.666.33-.916.256-.301.615-.452 1.061-.452.235 0 .444.045.637.135.193.088.356.215.484.381l.103.132z" transform="matrix(1.25 0 0 -1.25 456.15695 396.95238)"/><path d="m0 0c .435 0 .79-.355.79-.793 0-.437-.355-.792-.79-.792s-.788.355-.788.792c0 .438.353.793.788.793m1.017-1.682c.215.246.336.561.336.889 0 .747-.606 1.357-1.353 1.357-.746 0-1.353-.61-1.353-1.357 0-.749.607-1.356 1.353-1.356.201 0 .397.047.578.134l.195-.247h.705z" transform="matrix(1.25 0 0 -1.25 447.94895 395.20776)"/><path d="m0 0-.662-1.635-.674 1.635h-.607l1.132-2.713h.287l1.133 2.713z" transform="matrix(1.25 0 0 -1.25 452.20195 394.57388)"/></g><path d="m0 0-5.95.967c-.552-.166-1.137-.259-1.743-.259-3.287 0-5.958 2.679-5.958 5.978 0 3.302 2.671 5.986 5.958 5.986 3.291 0 5.964-2.684 5.964-5.986 0-1.307-.42-2.514-1.13-3.499l3.75-2.002c1.052 1.627 1.633 3.531 1.633 5.501 0 5.644-4.583 10.245-10.217 10.245-5.633 0-10.215-4.601-10.215-10.245 0-5.646 4.582-10.236 10.215-10.236 1.513 0 3.065.378 4.435 1.036l3.245 2.496z" fill="#eb5d5e" transform="matrix(1.25 0 0 -1.25 461.0437 404.45563)"/><path d="m0 0 .565-4.237c.098.024.196.048.293.075.628.171 1.24.398 1.821.674z" fill="#c05255" transform="matrix(1.25 0 0 -1.25 453.60107 403.24863)"/><path d="m0 0 4.748-6.282 3.422 2.607-2.121 2.69z" fill="#f39e9f" transform="matrix(1.25 0 0 -1.25 453.60195 403.24388)"/></g></svg>

<?xml version="1.0" encoding="UTF-8" standalone="no"?>
<!-- Created with Inkscape (http://www.inkscape.org/) -->

<svg
   xmlns:dc="http://purl.org/dc/elements/1.1/"
   xmlns:cc="http://creativecommons.org/ns#"
   xmlns:rdf="http://www.w3.org/1999/02/22-rdf-syntax-ns#"
   xmlns:svg="http://www.w3.org/2000/svg"
   xmlns="http://www.w3.org/2000/svg"
   xmlns:sodipodi="http://sodipodi.sourceforge.net/DTD/sodipodi-0.dtd"
   xmlns:inkscape="http://www.inkscape.org/namespaces/inkscape"
   width="7.2079554mm"
   height="7.8479309mm"
   viewBox="0 0 25.539999 27.807629"
   id="svg11176"
   version="1.1"
   inkscape:version="0.91 r13725"
   sodipodi:docname="QVC.svg">
  <defs
     id="defs11178">
    <clipPath
       clipPathUnits="userSpaceOnUse"
       id="clipPath2032">
      <path
         d="m 363.974,158.673 30.047,0 0,29.429 -30.047,0 0,-29.429 z"
         id="path2034"
         inkscape:connector-curvature="0" />
    </clipPath>
    <clipPath
       clipPathUnits="userSpaceOnUse"
       id="clipPath2040">
      <path
         d="m 366.769,188.162 20.552,0 0,-28.346 -20.552,0 0,28.346 z"
         id="path2042"
         inkscape:connector-curvature="0" />
    </clipPath>
    <clipPath
       clipPathUnits="userSpaceOnUse"
       id="clipPath2044">
      <path
         d="m 366.829,159.876 20.432,0 0,28.226 -20.432,0 0,-28.226 z"
         id="path2046"
         inkscape:connector-curvature="0" />
    </clipPath>
  </defs>
  <sodipodi:namedview
     id="base"
     pagecolor="#ffffff"
     bordercolor="#666666"
     borderopacity="1.0"
     inkscape:pageopacity="0.0"
     inkscape:pageshadow="2"
     inkscape:zoom="15.839192"
     inkscape:cx="10.128342"
     inkscape:cy="11.911283"
     inkscape:document-units="px"
     inkscape:current-layer="layer1"
     showgrid="false"
     fit-margin-top="0"
     fit-margin-left="0"
     fit-margin-right="0"
     fit-margin-bottom="0"
     inkscape:window-width="1920"
     inkscape:window-height="1017"
     inkscape:window-x="-8"
     inkscape:window-y="-8"
     inkscape:window-maximized="1" />
  <metadata
     id="metadata11181">
    <rdf:RDF>
      <cc:Work
         rdf:about="">
        <dc:format>image/svg+xml</dc:format>
        <dc:type
           rdf:resource="http://purl.org/dc/dcmitype/StillImage" />
        <dc:title />
      </cc:Work>
    </rdf:RDF>
  </metadata>
  <g
     inkscape:label="Layer 1"
     inkscape:groupmode="layer"
     id="layer1"
     transform="translate(-438.6587,-383.29188)">
    <g
       id="g4171">
      <g
         id="g4154">
        <path
           d="m 461.1587,404.48976 -7.5475,-1.22875 10e-4,10e-4 3.30375,4.37125 2.62,3.46625 4.27,-3.25375 -2.6475,-3.35625 z"
           style="fill:#f6988d;fill-opacity:1;fill-rule:nonzero;stroke:none"
           id="path2054"
           inkscape:connector-curvature="0" />
        <g
           id="g2060"
           transform="matrix(1.25,0,0,-1.25,454.29345,408.54501)">
          <path
             inkscape:connector-curvature="0"
             id="path2062"
             style="fill:#b95858;fill-opacity:1;fill-rule:nonzero;stroke:none"
             d="M 0,0 C 0.716,0.173 1.415,0.42 2.072,0.732 L -0.29,3.857 -0.571,4.228 0,0 Z" />
        </g>
        <g
           id="g2064"
           transform="matrix(1.25,0,0,-1.25,456.15695,396.95238)">
          <path
             inkscape:connector-curvature="0"
             id="path2066"
             style="fill:#c95759;fill-opacity:1;fill-rule:nonzero;stroke:none"
             d="M 0,0 -0.179,0.138 -0.304,0.235 -0.409,0.114 c -0.181,-0.212 -0.399,-0.315 -0.666,-0.315 -0.245,0 -0.44,0.074 -0.599,0.227 -0.158,0.156 -0.235,0.343 -0.235,0.572 0,0.149 0.036,0.286 0.107,0.409 0.069,0.118 0.164,0.213 0.294,0.287 0.13,0.071 0.266,0.108 0.418,0.108 0.139,0 0.267,-0.029 0.382,-0.084 0.115,-0.055 0.212,-0.135 0.293,-0.242 L -0.311,0.942 -0.179,1.046 0,1.182 0.128,1.281 0.034,1.413 c -0.121,0.169 -0.283,0.307 -0.478,0.404 -0.197,0.096 -0.408,0.142 -0.649,0.142 -0.393,0 -0.725,-0.128 -0.989,-0.385 -0.266,-0.26 -0.399,-0.581 -0.399,-0.957 0,-0.357 0.111,-0.666 0.33,-0.916 0.256,-0.301 0.615,-0.452 1.061,-0.452 0.235,0 0.444,0.045 0.637,0.135 0.193,0.088 0.356,0.215 0.484,0.381 L 0.134,-0.103 0,0 Z" />
        </g>
        <g
           id="g2068"
           transform="matrix(1.25,0,0,-1.25,447.94895,395.20776)">
          <path
             inkscape:connector-curvature="0"
             id="path2070"
             style="fill:#c95759;fill-opacity:1;fill-rule:nonzero;stroke:none"
             d="M 0,0 C 0.435,0 0.79,-0.355 0.79,-0.793 0.79,-1.23 0.435,-1.585 0,-1.585 c -0.435,0 -0.788,0.355 -0.788,0.792 C -0.788,-0.355 -0.435,0 0,0 m 1.017,-1.682 c 0.215,0.246 0.336,0.561 0.336,0.889 0,0.747 -0.606,1.357 -1.353,1.357 -0.746,0 -1.353,-0.61 -1.353,-1.357 0,-0.749 0.607,-1.356 1.353,-1.356 0.201,0 0.397,0.047 0.578,0.134 l 0.195,-0.247 0.705,0 -0.461,0.58 z" />
        </g>
        <g
           id="g2072"
           transform="matrix(1.25,0,0,-1.25,452.20195,394.57388)">
          <path
             inkscape:connector-curvature="0"
             id="path2074"
             style="fill:#c95759;fill-opacity:1;fill-rule:nonzero;stroke:none"
             d="M 0,0 -0.662,-1.635 -1.336,0 l -0.607,0 1.132,-2.713 0.287,0 L 0.609,0 0,0 Z" />
        </g>
        <g
           id="g2076"
           transform="matrix(1.25,0,0,-1.25,461.0437,404.45563)">
          <path
             inkscape:connector-curvature="0"
             id="path2078"
             style="fill:#eb5d5e;fill-opacity:1;fill-rule:nonzero;stroke:none"
             d="M 0,0 -5.95,0.967 C -6.502,0.801 -7.087,0.708 -7.693,0.708 c -3.287,0 -5.958,2.679 -5.958,5.978 0,3.302 2.671,5.986 5.958,5.986 3.291,0 5.964,-2.684 5.964,-5.986 0,-1.307 -0.42,-2.514 -1.13,-3.499 l 3.75,-2.002 c 1.052,1.627 1.633,3.531 1.633,5.501 0,5.644 -4.583,10.245 -10.217,10.245 -5.633,0 -10.215,-4.601 -10.215,-10.245 0,-5.646 4.582,-10.236 10.215,-10.236 1.513,0 3.065,0.378 4.435,1.036 L -0.013,-0.018 0,0" />
        </g>
        <g
           id="g2080"
           transform="matrix(1.25,0,0,-1.25,453.60107,403.24863)">
          <path
             inkscape:connector-curvature="0"
             id="path2082"
             style="fill:#c05255;fill-opacity:1;fill-rule:nonzero;stroke:none"
             d="m 0,0 0.565,-4.237 c 0.098,0.024 0.196,0.048 0.293,0.075 0.628,0.171 1.24,0.398 1.821,0.674 L 0,0" />
        </g>
        <g
           id="g2084"
           transform="matrix(1.25,0,0,-1.25,453.60195,403.24388)">
          <path
             inkscape:connector-curvature="0"
             id="path2086"
             style="fill:#f39e9f;fill-opacity:1;fill-rule:nonzero;stroke:none"
             d="M 0,0 4.748,-6.282 8.17,-3.675 6.049,-0.985 0,0 Z" />
        </g>
      </g>
    </g>
  </g>
</svg>
